X: 24
T:Skip to my Lou
M:4/4
L:1/8
Q:240
R:March
K:D
"D"f2 ff dd d2|f2 ff a4|"A"e2 ee cc c2|e2 ee g4|
"D"f2 ff dd d2|f2 ff a4|"A"e2 fg f2e2|"D"d4d4:|
T:Chorus
|:"D"f4 d4|f2 ff a4|"A"e4 c4|e2 ee g4|
"D"f4 d4|f2 ff a4|"A"e2 fg f2 e2|"D"d4 d4:|
